X: 1
T: Miss McLeod's Reel
N: abc version by Robert Bley-Vroman, Contradancers of Hawaii, July 1996
N: http://www.lll.hawaii.edu/contra/
M: 2/2
L: 1/8
K: G
|:BA | G2 BG dGBG | B2 BA BcBA | G2 BG dGBG | A2 AG AcBA |
       G2 BG dGBG | B2 BA B3 d | efed  Bdef | gedB Ac :|
|:BA |  G2 gf edeg | B2 BA BcBA | G2 gf edeg | A2 AG AcBA |
        G2 gf edeg | B2 BA B3 d | efed  Bdef | gedB Ac :|
